icons/account-pin-circle-line.svg

<svg viewBox="0 0 24 24" fill="currentColor" xmlns="http://www.w3.org/2000/svg">
    <path d="M9.74462 21.7446C5.30798 20.7219 2 16.7473 2 12C2 6.47715 6.47715 2 12 2C17.5228 2 22 6.47715 22 12C22 16.7473 18.692 20.7219 14.2554 21.7446L12 24L9.74462 21.7446ZM7.01173 18.2567C7.92447 18.986 9.00433 19.5215 10.1939 19.7957L10.7531 19.9246L12 21.1716L13.2469 19.9246L13.8061 19.7957C15.0745 19.5033 16.2183 18.9139 17.1676 18.1091C15.8965 16.8078 14.1225 16 12.1597 16C10.1238 16 8.29083 16.8692 7.01173 18.2567ZM5.61562 16.8214C7.25644 15.0841 9.58146 14 12.1597 14C14.644 14 16.8931 15.0065 18.5216 16.634C19.4563 15.3185 20 13.7141 20 12C20 7.58172 16.4183 4 12 4C7.58172 4 4 7.58172 4 12C4 13.7964 4.59708 15.4722 5.61562 16.8214ZM12 13C9.79086 13 8 11.2091 8 9C8 6.79086 9.79086 5 12 5C14.2091 5 16 6.79086 16 9C16 11.2091 14.2091 13 12 13ZM12 11C13.1046 11 14 10.1046 14 9C14 7.89543 13.1046 7 12 7C10.8954 7 10 7.89543 10 9C10 10.1046 10.8954 11 12 11Z"/>
</svg>

<svg xmlns="http://www.w3.org/2000/svg" viewBox="0 0 24 24">
    <g>
        <path fill="none" d="M0 0h24v24H0z"/>
        <path d="M9.745 21.745C5.308 20.722 2 16.747 2 12 2 6.477 6.477 2 12 2s10 4.477 10 10c0 4.747-3.308 8.722-7.745 9.745L12 24l-2.255-2.255zm-2.733-3.488a7.953 7.953 0 0 0 3.182 1.539l.56.129L12 21.172l1.247-1.247.56-.13a7.956 7.956 0 0 0 3.36-1.686A6.979 6.979 0 0 0 12.16 16c-2.036 0-3.87.87-5.148 2.257zM5.616 16.82A8.975 8.975 0 0 1 12.16 14a8.972 8.972 0 0 1 6.362 2.634 8 8 0 1 0-12.906.187zM12 13a4 4 0 1 1 0-8 4 4 0 0 1 0 8zm0-2a2 2 0 1 0 0-4 2 2 0 0 0 0 4z"/>
    </g>
</svg>
